dist/svg/disco-fill.svg

<svg xmlns="http://www.w3.org/2000/svg" viewBox="0 0 24 24"><path d="M10.82 2.276a.73.73 0 0 0-.538.515c-.023.082-.042.449-.042.817v.667l-.19.025c-2.118.283-3.804 1.095-5.231 2.52-1.344 1.343-2.192 3.027-2.485 4.94-.096.63-.096 1.85 0 2.48.398 2.594 1.87 4.839 4.07 6.205 1.518.943 3.456 1.42 5.206 1.282 2.156-.17 4.071-1.045 5.57-2.546 1.505-1.508 2.377-3.414 2.547-5.571.213-2.707-.97-5.519-3.059-7.27-1.37-1.148-2.856-1.791-4.718-2.04l-.19-.025v-.667c0-.729-.03-.903-.186-1.088a.78.78 0 0 0-.754-.244m7 0c-.36.09-.579.395-.58.808v.145l-.241.025a1.3 1.3 0 0 0-.355.084c-.262.135-.437.491-.384.777.076.402.387.644.83.645.147 0 .15.003.15.15.001.328.158.625.396.748.538.278 1.123-.111 1.124-.748 0-.147.003-.15.15-.15.443-.001.754-.243.83-.645.053-.286-.122-.642-.384-.777a1.3 1.3 0 0 0-.355-.084l-.241-.025v-.145c-.001-.322-.16-.621-.395-.741a.95.95 0 0 0-.545-.067m3 3c-.36.09-.579.395-.58.808v.145l-.241.025a1.3 1.3 0 0 0-.355.084c-.262.135-.437.491-.384.777.076.402.387.644.83.645.147 0 .15.003.15.15.001.328.158.625.396.748.538.278 1.123-.111 1.124-.748 0-.147.003-.15.15-.15.443-.001.754-.243.83-.645.053-.286-.122-.642-.384-.777a1.3 1.3 0 0 0-.355-.084l-.241-.025v-.145c-.001-.322-.16-.621-.395-.741a.95.95 0 0 0-.545-.067m-9.488.607c.654.433 1.354 2.094 1.665 3.95.083.5.178 1.364.222 2.037l.024.37H8.757l.024-.37c.045-.681.141-1.566.222-2.05.311-1.842 1.014-3.506 1.665-3.937.245-.162.419-.162.664 0m-2.907.602c-.42.924-.779 2.209-.964 3.454-.087.584-.181 1.576-.181 1.908 0 .435.188.393-1.764.393-1.608 0-1.716-.004-1.716-.07 0-.122.11-.697.2-1.05.485-1.898 1.912-3.655 3.72-4.581.254-.13.815-.373.831-.36.005.005-.051.143-.126.306m4.795 7.625c-.121 1.725-.314 2.824-.702 3.986-.418 1.251-1.05 2.144-1.518 2.144-.715 0-1.624-1.849-1.997-4.06a25 25 0 0 1-.222-2.05l-.024-.37h4.487zm4.963-.14c-.276 2.117-1.604 4.137-3.443 5.238-.39.233-1.3.664-1.3.615 0-.007.057-.136.126-.287.424-.932.789-2.234.973-3.475.087-.584.181-1.576.181-1.908 0-.435-.189-.393 1.769-.393h1.721z"/></svg>

<svg fill="none" xmlns="http://www.w3.org/2000/svg" viewBox="0 0 24 24"><path d="M10.820 2.276 C 10.554 2.342,10.353 2.534,10.282 2.791 C 10.259 2.873,10.240 3.240,10.240 3.608 L 10.240 4.275 10.050 4.300 C 7.932 4.583,6.246 5.395,4.819 6.820 C 3.475 8.163,2.627 9.847,2.334 11.760 C 2.238 12.390,2.238 13.610,2.334 14.240 C 2.732 16.834,4.204 19.079,6.404 20.445 C 7.922 21.388,9.860 21.865,11.610 21.727 C 13.766 21.557,15.681 20.682,17.180 19.181 C 18.685 17.673,19.557 15.767,19.727 13.610 C 19.940 10.903,18.757 8.091,16.668 6.340 C 15.298 5.192,13.812 4.549,11.950 4.300 L 11.760 4.275 11.760 3.608 C 11.760 2.879,11.730 2.705,11.574 2.520 C 11.398 2.311,11.087 2.210,10.820 2.276 M17.820 2.276 C 17.460 2.366,17.241 2.671,17.240 3.084 L 17.240 3.229 16.999 3.254 C 16.866 3.268,16.707 3.306,16.644 3.338 C 16.382 3.473,16.207 3.829,16.260 4.115 C 16.336 4.517,16.647 4.759,17.090 4.760 C 17.237 4.760,17.240 4.763,17.240 4.910 C 17.241 5.238,17.398 5.535,17.636 5.658 C 18.174 5.936,18.759 5.547,18.760 4.910 C 18.760 4.763,18.763 4.760,18.910 4.760 C 19.353 4.759,19.664 4.517,19.740 4.115 C 19.793 3.829,19.618 3.473,19.356 3.338 C 19.293 3.306,19.134 3.268,19.001 3.254 L 18.760 3.229 18.760 3.084 C 18.759 2.762,18.600 2.463,18.365 2.343 C 18.224 2.271,17.967 2.240,17.820 2.276 M20.820 5.276 C 20.460 5.366,20.241 5.671,20.240 6.084 L 20.240 6.229 19.999 6.254 C 19.866 6.268,19.707 6.306,19.644 6.338 C 19.382 6.473,19.207 6.829,19.260 7.115 C 19.336 7.517,19.647 7.759,20.090 7.760 C 20.237 7.760,20.240 7.763,20.240 7.910 C 20.241 8.238,20.398 8.535,20.636 8.658 C 21.174 8.936,21.759 8.547,21.760 7.910 C 21.760 7.763,21.763 7.760,21.910 7.760 C 22.353 7.759,22.664 7.517,22.740 7.115 C 22.793 6.829,22.618 6.473,22.356 6.338 C 22.293 6.306,22.134 6.268,22.001 6.254 L 21.760 6.229 21.760 6.084 C 21.759 5.762,21.600 5.463,21.365 5.343 C 21.224 5.271,20.967 5.240,20.820 5.276 M11.332 5.883 C 11.986 6.316,12.686 7.977,12.997 9.833 C 13.080 10.333,13.175 11.197,13.219 11.870 L 13.243 12.240 11.000 12.240 L 8.757 12.240 8.781 11.870 C 8.826 11.189,8.922 10.304,9.003 9.820 C 9.314 7.978,10.017 6.314,10.668 5.883 C 10.913 5.721,11.087 5.721,11.332 5.883 M8.425 6.485 C 8.005 7.409,7.646 8.694,7.461 9.939 C 7.374 10.523,7.280 11.515,7.280 11.847 C 7.280 12.282,7.468 12.240,5.516 12.240 C 3.908 12.240,3.800 12.236,3.800 12.170 C 3.800 12.048,3.910 11.473,4.000 11.120 C 4.485 9.222,5.912 7.465,7.720 6.539 C 7.974 6.409,8.535 6.166,8.551 6.179 C 8.556 6.184,8.500 6.322,8.425 6.485 M13.220 14.110 C 13.099 15.835,12.906 16.934,12.518 18.096 C 12.100 19.347,11.468 20.240,11.000 20.240 C 10.285 20.240,9.376 18.391,9.003 16.180 C 8.922 15.696,8.826 14.811,8.781 14.130 L 8.757 13.760 11.001 13.760 L 13.244 13.760 13.220 14.110 M18.183 13.970 C 17.907 16.087,16.579 18.107,14.740 19.208 C 14.350 19.441,13.440 19.872,13.440 19.823 C 13.440 19.816,13.497 19.687,13.566 19.536 C 13.990 18.604,14.355 17.302,14.539 16.061 C 14.626 15.477,14.720 14.485,14.720 14.153 C 14.720 13.718,14.531 13.760,16.489 13.760 L 18.210 13.760 18.183 13.970 " stroke="none" fill-rule="evenodd"/></svg>
